assets/icons/VizMap/DPad.svg

<svg fill="none" height="192" viewBox="0 0 192 192" width="192" xmlns="http://www.w3.org/2000/svg"><path d="m69.033 192c-2.3986 0-4.3525-1.954-4.3525-4.352v-53.942c0-3.517-2.8635-6.373-6.3737-6.373h-53.95434c-2.39857 0-4.35246-1.954-4.35246-4.352v-53.9418c0-2.3984 1.95389-4.352 4.35246-4.352h53.94754c3.517 0 6.3738-2.8632 6.3738-6.3731v-53.9621c0-2.39832 1.9538-4.352 4.3524-4.352h53.9478c2.398 0 4.352 1.95368 4.352 4.352v53.9419c0 3.5166 2.864 6.373 6.374 6.373h53.948c2.398 0 4.352 1.9537 4.352 4.3521v53.942c0 2.398-1.954 4.352-4.352 4.352h-53.948c-3.517 0-6.374 2.863-6.374 6.373v53.942c0 2.398-1.954 4.352-4.352 4.352h-53.9478z" fill="#fff"/><path d="m69.0262 190.48h-.333c-1.4114-.169-2.5127-1.377-2.5127-2.832v-53.942c0-4.346-3.5362-7.873-7.8737-7.873h-53.95434c-1.57029 0-2.85246-1.282-2.85246-2.852v-53.9418c0-1.5698 1.28217-2.852 2.85246-2.852h53.94754c4.3463 0 7.8738-3.5357 7.8738-7.8731v-53.9621c0-1.56974 1.2821-2.852 2.8524-2.852h53.9478c1.57 0 2.852 1.28226 2.852 2.852v53.9419c0 4.3462 3.536 7.873 7.874 7.873h53.948c1.57 0 2.852 1.2823 2.852 2.8521v53.942c0 1.57-1.282 2.852-2.852 2.852h-53.948c-4.346 0-7.874 3.535-7.874 7.873v53.942c0 1.57-1.282 2.852-2.852 2.852z" stroke="#fff" stroke-opacity=".3" stroke-width="3"/><circle cx="96" cy="96" fill="#fff" r="20"/></svg>

<svg width="192" height="192" viewBox="0 0 192 192" fill="none" xmlns="http://www.w3.org/2000/svg">
    <path
        d="M69.033 192C66.6344 192 64.6805 190.046 64.6805 187.648V133.706C64.6805 130.189 61.817 127.333 58.3068 127.333H4.35246C1.95389 127.333 0 125.379 0 122.981V69.0392C0 66.6408 1.95389 64.6872 4.35246 64.6872H58.3C61.817 64.6872 64.6738 61.824 64.6738 58.3141V4.352C64.6738 1.95368 66.6276 0 69.0262 0H122.974C125.372 0 127.326 1.95368 127.326 4.352V58.2939C127.326 61.8105 130.19 64.6669 133.7 64.6669H187.648C190.046 64.6669 192 66.6206 192 69.019V122.961C192 125.359 190.046 127.313 187.648 127.313H133.7C130.183 127.313 127.326 130.176 127.326 133.686V187.628C127.326 190.026 125.372 191.98 122.974 191.98H69.0262L69.033 192Z"
        fill="#FFFFFF" />
    <path
        d="M69.0262 190.48H68.6932C67.2818 190.311 66.1805 189.103 66.1805 187.648V133.706C66.1805 129.36 62.6443 125.833 58.3068 125.833H4.35246C2.78217 125.833 1.5 124.551 1.5 122.981V69.0392C1.5 67.4694 2.78217 66.1872 4.35246 66.1872H58.3C62.6463 66.1872 66.1738 62.6515 66.1738 58.3141V4.352C66.1738 2.78226 67.4559 1.5 69.0262 1.5H122.974C124.544 1.5 125.826 2.78226 125.826 4.352V58.2939C125.826 62.6401 129.362 66.1669 133.7 66.1669H187.648C189.218 66.1669 190.5 67.4492 190.5 69.019V122.961C190.5 124.531 189.218 125.813 187.648 125.813H133.7C129.354 125.813 125.826 129.348 125.826 133.686V187.628C125.826 189.198 124.544 190.48 122.974 190.48H69.0262Z"
        stroke="#FFFFFF" stroke-opacity="0.3" stroke-width="3" />
    <circle cx="96" cy="96" r="20" fill="#FFFFFF" />
</svg>
